X: 1314
T: An Maidrín Ruadh
R: hornpipe
M: 4/4
K: Gmajor
dB|G>AB>c d2 d2|edcB d3 B|GABc d2 BG|A4 G2
(3def|gaba gg fe|d2g2B2 AG|GABG AGAB|G4 G2:|
BA|GABc d2 g2|e2 g2 d2 g2|e2 g2 dBGB|A4 G2(3def
[1g2 g2 f2 ed|e2 e2 d2 BA|GABG AGAB|G4 G2:|
[2 gaba gfed|dBgB dcBA|GABG AGAB|G4 G2z2||
dega b ~g3|a ~g3 bgag|dega bgag|e4 d2|
(3def|gagf dfed|dBgB dcBA|GABG AGAB|G4 G2:|

